!!!!SEGMENT: Wil2043-Magnum_hereditatis_mysterium.krn
!!!id: Wil2043
!!!AGN: Motet
!!!voices: 4
!!!COM: Adrian Willaert
!!!OTL: Magnum hereditatis mysterium
**kern	**kern	**kern	**kern
*part4	*part3	*part2	*part1
*staff4	*staff3	*staff2	*staff1
*I"Bassus	*I"Tenor	*I"Altus	*I"Superius
*I'B	*I'T	*I'A	*I'S
*clefF4	*clefGv2	*clefGv2	*clefG2
*k[b-]	*k[b-]	*k[b-]	*k[b-]
*F:	*F:	*F:	*F:
*M2/1	*M2/1	*M2/1	*M2/1
*met(C|)	*met(C|)	*met(C|)	*met(C|)
!!section: Prima pars: Magnum hereditatis mysterium
!!!OMD: Prima pars: Magnum hereditatis mysterium
0r	0r	0G	[0g
=1	=1	=1	=1
1r	1.G	1.B-y	0g_
[1G	.	.	.
.	2A	2c	.
=2	=2	=2	=2
1G]	1B-y	1d	0g]
1C	1c	1e-i	.
=3	=3	=3	=3
[0D	0A	1.d	1.f
.	.	2e	2g
=4	=4	=4	=4
1D]	0d	1f	1a
1G	.	1g	1b-y
=5	=5	=5	=5
1.A	2r	2.e	1.cc
.	1c	.	.
.	.	4d	.
.	.	2e	.
2F	[2d	2f	4b-y
.	.	.	4a
=6	=6	=6	=6
1G	2d]	1d	1b-y
.	1G	.	.
1C	.	1e	1g
.	[2c	.	.
=7	=7	=7	=7
1G	2c]	2.d	1g
.	2B-y	.	.
.	.	4e	.
2F	2c	[1f	[1a
2D	[2d	.	.
=8	=8	=8	=8
2.F	4d]	1f]	1a]
.	4c	.	.
.	2.c	.	.
4E	.	.	.
1D	.	2r	1f
.	4BnXi	.	.
.	4Bni	[2f	.
.	4A	.	.
=9	=9	=9	=9
2C	1c	2f]	1g
2c	.	2e	.
2B-y	1d	2f	[1b-y
2G	.	[2g	.
=10	=10	=10	=10
2.B-y	2r	4g]	1b-]
.	.	4f	.
.	2d	2.f	.
4A	.	.	.
1G	2d	.	1b-y
.	.	4e	.
.	2B-y	4e	.
.	.	4d	.
=11	=11	=11	=11
1F	0c	1f	1a
1C	.	1e	1g
=12	=12	=12	=12
1.G	1B-y	2.d	2.g
.	.	4c	4a
.	1G	2d	2b-y
2C	.	[2e	[2cc
=13	=13	=13	=13
1F	2.A	4e]	2cc]
.	.	4c	.
.	.	2d	4b-y
.	4B-y	.	4a
2E	2c	2e	2g
2D	2F	2f	[2a
=14	=14	=14	=14
1E-X	1G	2B-y	4a]
.	.	.	4g
.	.	2c	1g
1D	1A	[1d	.
.	.	.	2f#i
=15	=15	=15	=15
0G	1G	1d]	[0g
.	1B-y	1d	.
=16	=16	=16	=16
1r	1c	1e-i	0g]
1C	1c	1e-i	.
=17	=17	=17	=17
1G	1B-y	1d	1r
1G	1d	2.g	1b-y
.	.	4f	.
=18	=18	=18	=18
1C	2.c	4e	1cc
.	.	4d	.
.	.	1g	.
.	4B-y	.	.
1r	1A	.	1cc
.	.	2f	.
=19	=19	=19	=19
0r	1G	2g	1b-y
.	.	2.d	.
.	2.B-y	.	1dd
.	.	4e	.
.	.	[2f	.
.	4A	.	.
=20	=20	=20	=20
1C	1G	2f]	2.cc
.	.	2e	.
.	.	.	4b-y
1F	2F	1f	1a
.	[2c	.	.
=21	=21	=21	=21
1G	2c]	1d	[0g
.	2BnXi	.	.
2C	[1c	1r	.
[2C	.	.	.
=22	=22	=22	=22
2C]	1c]	1.e-X	1g]
2C	.	.	.
2G	2r	.	[1b-y
[2G	2B-y	2d	.
=23	=23	=23	=23
2G]	2G	1d	2b-]
2F	2A	.	2a
2.G	2B-y	2r	1g
.	2B-y	[2d	.
4F	.	.	.
=24	=24	=24	=24
1E	2.G	2d]	2r
.	.	2c	1g
.	4A	.	.
1D	2B-y	1d	.
.	2A	.	2f
=25	=25	=25	=25
2r	2c	1e	2.g
1G	2.B-y	.	.
.	.	.	4a
.	.	2.d	2b-y
.	4G	.	.
2F	[2d	.	[2a
.	.	4c	.
=26	=26	=26	=26
2G	2d]	2B-y	4a]
.	.	.	4g
2E	2c#i	4A	1g
.	.	4G	.
1D	1d	1A	.
.	.	.	2f#i
=27	=27	=27	=27
2r	1r	0G	1g
1E-X	.	.	.
.	[1B-y	.	2r
2E-i	.	.	[2g
=28	=28	=28	=28
1D	2B-]	2r	2g]
.	2A	1d	2f
2r	1G	.	2.g
[2G	.	2B-y	.
.	.	.	4a
=29	=29	=29	=29
2G]	2r	2d	2b-y
2C	1G	2.e-i	2cc
1D	.	.	2a
.	.	4d	.
.	2F	[2d	[2b-y
=30	=30	=30	=30
1E-X	2.G	2d]	2b-]
.	.	2c	4a
.	4A	.	4g
2.D	2B-y	[1d	1f
.	[2A	.	.
4C	.	.	.
=31	=31	=31	=31
2BB-y	4A]	2d]	0r
.	4G	.	.
4AA	1G	4c	.
4GG	.	4B-y	.
1D	.	1A	.
.	2F#i	.	.
=32	=32	=32	=32
0GG	1G	1.B-y	0r
.	2r	.	.
.	2G	4A	.
.	.	4G	.
=33	=33	=33	=33
2r	2G	2.B-y	0r
2G	2G	.	.
.	.	4c	.
2G	2.B-y	2d	.
2G	.	2d	.
.	4A	.	.
=34	=34	=34	=34
1B-y	1G	2d	0r
.	.	2d	.
2A	1D	1f	.
[2B-y	.	.	.
=35	=35	=35	=35
4B-]	0r	2.d	0r
4A	.	.	.
2.G	.	.	.
.	.	4c	.
.	.	2d	.
4F	.	.	.
4E	.	[2e	.
4D	.	.	.
=36	=36	=36	=36
2C	2r	2e]	1r
2BB-y	2G	1d	.
2.E-X	2G	.	2r
.	2G	2c	2g
4D	.	.	.
=37	=37	=37	=37
2BB-y	1B-y	0d	2g
1B-y	.	.	2f
.	2.G	.	1b-y
2G	.	.	.
.	4A	.	.
=38	=38	=38	=38
1G	4B-y	2r	2.g
.	4c	.	.
.	1B-y	2d	.
.	.	.	4f
1r	.	2d	2g
.	2F	2d	[2a
=39	=39	=39	=39
1r	2.c	1e-X	4a]
.	.	.	4g
.	.	.	1g
.	4B-y	.	.
2r	1A	2c	.
2D	.	[2d	2f#i
=40	=40	=40	=40
2E-X	1G	4d]	2g
.	.	4c	.
2C	.	1c	4f
.	.	.	4e
1G	1r	.	1d
.	.	2BnXi	.
=41	=41	=41	=41
2C	2r	2.c	1e
2C	2c	.	.
.	.	8B-yL	.
.	.	8AJ	.
2.E-X	2c	1G	2r
.	2B-y	.	2g
4D	.	.	.
=42	=42	=42	=42
1C	1e-X	2r	2g
.	.	1G	2g
1GG	2d	.	1b-y
.	[2e-i	[2g	.
=43	=43	=43	=43
0C	4e-]	4g]	2.g
.	4d	4f	.
.	2.c	4e	.
.	.	4d	4f
.	.	1e	2g
.	4B-y	.	.
.	4A	.	[2a
.	4G	.	.
=44	=44	=44	=44
0D	2F	0d	4a]
.	.	.	4g
.	2B-y	.	1g
.	1A	.	.
.	.	.	2f#i
=45	=45	=45	=45
0G	1G	1r	1g
.	1B-y	1d	2r
.	.	.	[2g
=46	=46	=46	=46
0r	1c	1e	2g]
.	.	.	1a
.	1d	1f	.
.	.	.	[2b-y
=47	=47	=47	=47
0r	2B-y	2d	2b-]
.	1c	2.e-i	1g
.	.	4d	.
.	2F	[2c	[2a
=48	=48	=48	=48
0r	1G	2c]	2a]
.	.	2B-y	1g
.	1A	1c	.
.	.	.	2f#i
=49	=49	=49	=49
1r	1G	2r	0g
.	.	1d	.
1G	1B-y	.	.
.	.	[2e	.
=50	=50	=50	=50
1A	1c	2e]	1r
.	.	1f	.
2.B-y	1d	.	1f
.	.	[2d	.
4A	.	.	.
=51	=51	=51	=51
2G	2B-y	2d]	1g
2C	1c	2.e	.
2F	.	.	2a
.	.	4d	.
2D	2F	[2d	[2b-y
=52	=52	=52	=52
1E	1G	2d]	4b-]
.	.	.	4a
.	.	2c#i	1g
1D	1A	[1d	.
.	.	.	2f#i
=53	=53	=53	=53
2.GG	2r	1d]	2.g
.	2G	.	.
4AA	.	.	8fL
.	.	.	8eJ
1BB-y	2F	2r	[1d
.	[2B-y	2F	.
=54	=54	=54	=54
1r	4B-]	2G	1d]
.	4A	.	.
.	4G	1B-y	.
.	4F	.	.
1C	1E	.	2r
.	.	2A	2c
=55	=55	=55	=55
1BB-y	1D	2B-y	2d
.	.	2.d	1f
1C	1G	.	.
.	.	4c	.
.	.	2c	2e
=56	=56	=56	=56
1D	1F	2A	2f
.	.	1d	2.a
1E-i	1G	.	.
.	.	.	4g
.	.	2c	2g
=57	=57	=57	=57
1BB-y	1B-y	1d	2f
.	.	.	1b-y
1F	1c	2r	.
.	.	[2f	2a
=58	=58	=58	=58
2r	1B-y	2f]	1b-y
1G	.	2e	.
.	1r	1d	1r
2F	.	.	.
=59	=59	=59	=59
2E	0r	1c	0r
2F	.	.	.
2.G	.	2r	.
.	.	2B-y	.
4F	.	.	.
=60	=60	=60	=60
2E	0r	2c	2r
2D	.	1d	1f
1G	.	.	.
.	.	4c	2e
.	.	4B-y	.
=61	=61	=61	=61
1F	2r	1A	2d
.	1c	.	2c
2r	.	2G	2.d
[2D	2B-y	[2F	.
.	.	.	4e
=62	=62	=62	=62
2D]	1A	2F]	2f
2C	.	2c	2e
2BB-y	1G	2d	2r
2C	.	4c	2e
.	.	4B-y	.
=63	=63	=63	=63
2.D	2r	4A	2f
.	.	4G	.
.	2F	2A	2.d
4C	.	.	.
2BB-y	2G	2B-y	.
.	.	.	4e
2AA	[2A	2c	4f
.	.	.	4e
=64	=64	=64	=64
1D	2A]	[0A	2f
.	4G	.	1d
.	4F	.	.
1AA	1E	.	.
.	.	.	2c#i
=65	=65	=65	=65
2r	1D	1A]	1d
1F	.	.	.
.	2r	1d	1r
2G	2B-y	.	.
=66	=66	=66	=66
2A	2F	2c	0r
1B-y	2G	2B-y	.
.	1F	1c	.
2A	.	.	.
=67	=67	=67	=67
2B-y	2r	1d	0r
1G	1B-y	.	.
.	.	2.d	.
4F	2G	.	.
4E	.	4e	.
=68	=68	=68	=68
2D	2A	2f	0r
2C	2.c	1g	.
1D	.	.	.
.	4B-y	.	.
.	4B-y	2f	.
.	4A	.	.
=69	=69	=69	=69
1C	2c	2.e	0r
.	4G	.	.
.	4A	8dL	.
.	.	8cJ	.
1G	4B-y	2d	.
.	4A	.	.
.	[2B-y	[2e	.
=70	=70	=70	=70
2G	4B-]	4e]	0r
.	4A	4d	.
2F	1A	1d	.
1E	.	.	.
.	2G	2c#i	.
=71	=71	=71	=71
2D	2A	1d	1r
1G	1B-y	.	.
.	.	1r	1g
4F	4A	.	.
4E	4G	.	.
=72	=72	=72	=72
2D	2B-y	1r	2f
2C	2c	.	2e
1D	1A	2r	1f
.	.	2d	.
=73	=73	=73	=73
1E-X	1G	2c	1g
.	.	2B-y	.
1C	1c	1e-i	2.g
.	.	.	4a
=74	=74	=74	=74
2G	2B-y	2d	2b-y
2F	2A	2.f	1cc
1G	1B-y	.	.
.	.	4e	.
.	.	4e	2b-y
.	.	4d	.
=75	=75	=75	=75
2F	2c	4f	2a
.	.	4e	.
1B-y	2.d	4d	4g
.	.	4c	4f
.	.	2B-y	2g
.	4c	.	.
2F	2c	2A	[2a
=76	=76	=76	=76
2G	2B-y	2.d	4a]
.	.	.	4g
4F	4A	.	1g
4E	4G	4c	.
1D	1A	[1d	.
.	.	.	2f#i
=77	=77	=77	=77
1GG	2r	1d]	2g
.	2G	.	1b-y
1BB-y	2F	1d	.
.	2G	.	4a
.	.	.	4g
=78	=78	=78	=78
2AA	4A	2c	2f
.	4F	.	.
2GG	2.B-y	2B-y	2g
1C	.	1c	1e
.	4A	.	.
.	4A	.	.
.	8GL	.	.
.	8AJ	.	.
=79	=79	=79	=79
0BB-y	1B-y	1d	2r
.	.	.	2f
.	1B-y	2.d	2f
.	.	.	2g
.	.	4e	.
=80	=80	=80	=80
2r	2A	2f	4a
.	.	.	4f
2E-X	2G	1g	1b-y
2E-i	1c	.	.
2F	.	4f	2a
.	.	4e	.
=81	=81	=81	=81
2G	2B-y	2d	2b-y
2C	1c	2.e	2g
2F	.	.	2a
.	.	4d	.
2G	2B-y	[2d	[2b-y
=82	=82	=82	=82
1E	1G	2d]	4b-]
.	.	.	4a
.	.	2c#i	1g
1D	1A	1d	.
.	.	.	2f#i
=83	=83	=83	=83
00GGl	00Gl	00dl	00gl
==	==	==	==
*-	*-	*-	*-
!!!system-decoration: [*]
!!!RDF**kern: i = editorial accidental
!!!RDF**kern: l = terminal long
!!!ENC: Benjamin Ory
!!!END: 2024/5/13
!!!EED: Benjamin Ory
!!!EEV: 2024/05/13
!!!YEC: Copyright 2024 Benjamin Ory, All Rights Reserved
!!!ONB: Translated from MusicXML on 2024/05/13
